X: 26822
T: Mills Are Grinding, The
R: reel
M: 4/4
K: Gmajor
DGGF G2 GA|BABd cBAG|D2 F2 F2 FG|AB (3cBA dcAF|
DGGF G2 GA|BAGA Bc d2|defg af (3gfe|fdcA G2 G2:|
dggf g2 g2|bgag fdde|f2 (3gfe f2 fg|afge dcAF|
DGGF G2 GA|BAGA Bc d2|defg af (3gfe|fdcA G2 G2:|

